X:1
T:Title
%%score { ( 1 4 ) | ( 2 3 ) }
L:1/8
M:4/4
K:Ab
V:1 treble nm="Grand Piano"
V:4 treble 
V:2 bass 
V:3 bass 
V:1
 z4 z2[Q:1/4=100] [CA][DB] | [Ec]2 [DB][CA] [CE]2 [A,C][B,D] | [CE]2 [CF][CE] [CA]2 [EA]2 | %3
 B2 BA G2 FE | [Ec]6 cd | e2 cB A2 Bc | d2 BA G2 FE | .[A,CE]2 [FB][Fd] c2 BB |[M:3/4] [CEA]6 | %9
[M:1/4] [A,CA]2 |[M:4/4] B2 BA G2 FE | [Ec]6 z2 | e2 cB A2 Bc | B6 z2 | e2 cB A2 Bc | d2 BA G2 FE | %16
 .[A,CE]2 [FB][Fd] c2 BB |[M:3/4] [CEA]6 |] %18
V:2
 z4 z2 [A,,A,]2 | [A,,A,]2 [A,,E,][A,,E,] [A,,A,]2 [A,,E,][A,,E,] | %2
 [A,,A,]2 [A,,A,][A,,A,] [A,,E,]2 [C,A,]2 | [E,G,E]2 [E,DE][E,CE] [E,B,D]2 [E,A,D][E,G,D] | %4
 [A,,A,]6 [A,E][A,B,E] | [A,CE]2 [A,E][A,DE] [A,CE]2 [E,G,E][E,A,E] | %6
 [E,B,E]2 [E,DE][E,CE] [E,B,E]2 [E,D]-[E,G,D] | z A[D,A,][D,A,] [E,A,E]2 [E,G,E][E,DE] | %8
[M:3/4] A,,6 |[M:1/4] A,,2 |[M:4/4] [E,G,D]2 [E,G,D][E,A,D] [E,B,D]2 [E,A,D][E,G,D] | %11
 z4 z2 [A,E]2 | [A,CE]2 [A,E][A,DE] [A,CE]2 [G,B,E][A,E] | E6 z2 | %14
 [A,CE]2 [A,E][A,DE] [A,CE]2 [E,G,E][E,A,E] | [E,B,E]2 [E,DE][E,CE] [E,B,E]2 [E,D]-[E,G,D] | %16
 z A[D,A,][D,A,] [E,A,E]2 [E,G,E][E,DE] |[M:3/4] A,,6 |] %18
V:3
 x8 | x8 | x8 | x8 | x8 | x8 | z4 z2 .A,2 | A,,2 z2 z4 |[M:3/4] x6 |[M:1/4] x2 |[M:4/4] x8 | %11
 [A,,A,]2 A,,2 A,,2 z B, | x8 | [E,G,]2 E,E, E,D,[C,A,][B,,B,] | x8 | z4 z2 .A,2 | A,,2 z2 z4 | %17
[M:3/4] x6 |] %18
V:4
 x8 | x8 | x8 | x8 | x8 | x8 | x8 | x8 |[M:3/4] x6 |[M:1/4] x2 |[M:4/4] x8 | z2 A,2 A,2 cd | x8 | %13
 z2 G,G, G,B,[Ec][Ed] | x8 | x8 | x8 |[M:3/4] x6 |] %18

